X:1
T:Whelpton, 55.65
T:Whelpton, 55.65
T:George Whelpton, 1903
T:Public Domain Courtesy of the Cyber Hymnal™
C:George Whelpton, 1903
Z:Public Domain
Z:Courtesy of the Cyber Hymnal™
%%score 1 2
L:1/8
Q:1/4=110
M:4/4
K:D
V:1 treble 
V:2 bass 
V:1
 [DF]3 [DF] [DF]2 [DF]2 | [CE]6 z2 | [CG]3 [DG] [EG]2 [CG]2 | [DF]6 [DF]2 | %4
 [DA]3 [DA] [DA]2 [DF]2 | [EG]6 [B,E]2 | [A,D]4 [A,C]2 [A,E]2 | [A,D]6 z2 |] %8
V:2
 [D,A,]3 [D,A,] [D,A,]2 [D,A,]2 | [A,,A,]6 z2 | [A,,A,]3 [B,,A,] [C,A,]2 [A,,A,]2 | %3
 [D,A,]6 [D,A,]2 | [F,A,]3 [F,A,] [F,A,]2 [D,=C]2 | [G,,G,B,]6 [G,,G,]2 | %6
 [A,,F,]4 [A,,E,]2 [A,,G,]2 | [D,F,]6 z2 |] %8

